X: 43
T:Prince of Wales' Delight
M:2/4
L:1/8
Q:220
C:Trad
S:Blodau'r Grug Collection Vol. 3
A:Wales
Z:brian_martin12345@yahoo.com
K:C
c2eg|g2fe|fa Ad|cB AG|c2eg|g2fe|fa dB|c/B/c/d/c2:||!
G2AB|c2de|fa fd|cB AG|G2 AB|c2 de|fd cB|c/B/c/d/c2:||

